X:1
T:Nachtgesang
T:Josef Rheinberger
T:Robert Reinick
T:Nachtgesang
T:Op. 80, nr. V
T:CPDL - Creative Commons Attribution Non Commercial 3.0
T:CPDL - Creative Commons Attribution Non Commercial 3.0
T:CPDL - Creative Commons Attribution Non Commercial 3.0
T:CPDL - Creative Commons Attribution Non Commercial 3.0
C:Josef Rheinberger
Z:Robert Reinick
Z:CPDL - Creative Commons Attribution Non Commercial 3.0
%%score [ 1 2 3 4 ]
L:1/8
Q:1/4=60
M:4/4
K:Gb
V:1 treble nm="S"
V:2 treble nm="A"
V:3 treble-8 nm="T"
V:4 bass nm="B"
V:1
!pp!"^Adagio" D2 | D2!<(! D2 D2 D D!<)! |!>(! D2 D4!>)! =D2 | E2 E E!<(! E2 E E!<)! | %4
w: Die|Ster- ne leuch- ten am|Him- mel, es|blin- ken die Wel- len im|
!>(! (c4 B2)!>)! F2 |!>(! G2 F E G2 F E!>)! |!<(! G2 F4!<)!!f! (F>e) | e2 d =c e2 d c | %8
w: See; _ es|lockt und es grüßt aus der|Tie- fe, es _|grüßt und es winkt aus der|
"^dim." d6!pp! d2 | d2 G2 d2 G G | d2 =c4 c2 | _c2 F F c2 F F |!<(! (c4 =c2)!<)!!f! d2 | %13
w: Höh'. Und|lei- se flüs- tern die|Lüf- te, da|schau- ert in Won- ne der|See; _ rings|
 d2!<(! d2 d2 d d!<)! | d2!>(! d4 =d2!>)! | e2!<(! e e!<)! e2 e e | (a2"^dim." d4) d2 | %17
w: hei- l'ge se- li- ge|Lie- be, nur|mir in dem Her- zen das|Weh'. _ Die|
!pp! d2 d d _f2 d __B | A2 d4 d2 | d2 d d _f2 d __B | (A2!<(! d4) d2!<)! |!f! d2 G3/2 G/ G2 G d | %22
w: Ster- ne sie wan- deln am|Him- mel, die|Wel- len sie ziehn durch den|See; _ Was|küm- mert es sie, ob auf|
 d2"^dim." =c4 _c2 |!p! (B2 F)!<(! G c2 B A!<)! |!>(! (e2 d2)!>)! z2!mf! d2 | %25
w: Er- den ein|Herz _ in Lie- be ver-|geh'! _ Was|
 d2 c B!<(! B2 A G!<)! |!f! g4"^dim." G2 G2 | %27
w: küm- mert es sie, ob auf|Er- den ein|
!pp! G2 D2[Q:1/4=50]"^rit.   _    _    _"!<(! (DE)!<)!!>(! D!>)! D | !fermata!D6 |] %29
w: Herz in Lie- * be ver-|geh'!|
V:2
!pp! B,2 | B,2!<(! B,2 B,2 B, B,!<)! |!>(! C2 C4!>)! C2 | C2 C C!<(! C2 C C!<)! |!>(! D6!>)! D2 | %5
w: Die|Ster- ne leuch- ten am|Him- mel, es|blin- ken die Wel- len im|See; es|
!>(! D2 D D =C2 C C!>)! |!<(! (_C2 c2) B2!<)!!f! A2 | G2 G G (GE) F G |"^dim." F6!pp! F2 | %9
w: lockt und es grüßt aus der|Tie- * fe, es|grüßt und es winkt _ aus der|Höh'. Und|
 G3 G G2 G G | G4 G2 G2 | F2 F F F2 F F |!<(! F6!<)!!f! D2 | D2!<(! E2 F2 G A!<)! | %14
w: lei- se flüs- tern die|Lüf- te, da|schau- ert in Won- ne der|See; rings|hei- l'ge se- li- ge|
 G2!>(! F4 _F2!>)! | E2!<(! =F =G!<)! (Ae) c A |"^dim." F6 F2 |!pp! _F6 F2 | =F2 F F A2 F D | %19
w: Lie- be, nur|mir in dem Her- * zen das|Weh', das|Weh'. Die|Ster- ne sie wan- deln am|
 D2 _F4 F2 | F2!<(! F =F A2 F D!<)! |!f! _F2 F2 F2 F F | E4 E2 __E2 |!p! D3!<(! D F2 F F!<)! | %24
w: Him- mel, die|Wel- len sie ziehn durch den|See; Was küm- mert es|sie, ob ein|Herz in Lie- be ver-|
!>(! G4!>)! z2!mf! D2 | D2 D D!<(! =D2 D D!<)! |!f! (E2 e2)"^dim." d2 c2 |!pp! B2 (AG) F2 G A | %28
w: geh'! Was|küm- mert es sie, ob auf|Er- * den ein|Herz in _ Lie- be ver-|
 !fermata!G6 |] %29
w: geh'!|
V:3
!pp! D2 | D2!<(!!<(! E2 F2 G A!<)!!<)! |!>(!!>(! G2 F4!>)!!>)! _F2 | E2 =F =G!<(! (Ae) c A!<)! | %4
w: Die|Ster- ne leuch- ten am|Him- mel, es|blin- ken die Wel- * len im|
!>(! F6!>)! c2 |!>(! B2 A B __B2 B B!>)! |!<(! (A2 __e2) d2!<)!!f! c2 | B2 B B __B2 B B | %8
w: See; es|lockt und es grüßt aus der|Tie- * fe, es|grüßt und es winkt aus der|
"^dim." A6!pp! d2 | _f3 f f2 f f | e4 e2 e2 | =d2 d d d2 _d d |!<(! (=d2 _d2 =c2)!<)!!f! _c2 | %13
w: Höh'. Und|lei- se flüs- tern die|Lüf- te, da|schau- ert in Won- ne der|See; _ _ rings|
 B2!<(! B2 B2 B B!<)! | c2!>(! c4 c2!>)! | c2!<(! c c!<)! c2 c c |"^dim." (c4 B2) A2 | %17
w: hei- l'ge se- li- ge|Lie- be, nur|mir in dem Her- zen das|Weh'. _ Die|
!pp! __B2 B B B2 B2 | c2 c4 c2 | __B2 B B B2 B B |!<(! c6!<)! D2 |!f! G2 d3/2 d/ d2 d G | %22
w: Ster- ne sie wan- deln|Him- mel, die|Wel- len sie ziehn durch den|See; Was|küm- mert es sie, ob auf|
 G4 G2 G2 |!p! (G2 c)!<(! B A2 d d!<)! |!>(! d4!>)! z2!mf! G2 | G2 G G!<(! G2 G G!<)! | %26
w: Er- den ein|Herz _ in Lie- be ver-|geh'! Was|küm- mert es sie, ob auf|
!f! (G2 g2)"^dim." f2 (e__e) |!pp! d2 (cB) A2 B c | !fermata!B6 |] %29
w: Er- * den ein _|Herz in _ Lie- be ver-|geh'!|
V:4
!pp! G,,2 | G,,2!<(! G,,2 G,,2 G,, G,,!<)! |!>(! A,,2 A,,4!>)! A,,2 | %3
w: Die|Ster- ne leuch- ten am|Him- mel, es|
 A,,2 A,, A,,!<(! A,,2 A,, A,,!<)! |!>(! D,6!>)! D,2 |!>(! D,2 C, D, D,2 D, D,!>)! | %6
w: blin- ken die Wel- len im|See; es|lock und es grüßt aus der|
!<(! D,2 D,4!<)!!f! D,2 | D,2 D, D, D,2 D, D, |"^dim." (D,2 D2 =C2)!pp! _C2 | B,3 B, B,2 B, B, | %10
w: Tie- fe, es|grüßt und es winkt aus der|Höh'. _ _ Und|lei- se flüs- tern die|
 =A,4 A,2 A,2 | _A,2 A, A, A,2 A, A, |!<(! A,6!<)!!f! D,2 | G,,2!<(! G,,2 G,,2 G,, G,,!<)! | %14
w: Lüf- te, da|schau- ert in Won- ne der|See; rings|hei- l'ge se- li- ge|
 A,,2!>(! A,,4 A,,2!>)! | A,2!<(! A, A,!<)! A,2 A, A, |"^dim." D,6 D,2 |!pp! D,2 D, D, D,2 D,2 | %18
w: Lie- be, nur|mir in dem Her- zen das|Weh'. Die|Ster- ne sie wan- deln|
 D,2 D,4 D,2 | D,2 D, D, D,2 D, D, |!<(! D,6!<)! C,2 |!f! B,,2 B,3/2 B,/ B,2 B,, B,, | %22
w: Him- mel, die|Wel- len sie ziehn durch den|See; Was|küm- mert es sie, ob auf|
 =A,,4 A,,2 _A,,2 |!p! D,3!<(! D, D,2 D C!<)! |!>(! B,4!>)! z2!mf! B,,2 | %25
w: Er- den ein|Herz in Lie- be ver-|geh'! Was|
 B,,2 B,, B,,!<(! B,,2 B,, B,,!<)! |!f! (C,2 A,,2)"^dim." B,,2 C,2 |!pp! D,2 D,2 D,2 D, D, | %28
w: küm- mert es sie, ob auf|Er- * den ein|Herz in Lie- be ver-|
 !fermata!G,,6 |] %29
w: geh'!|

